Numix/22/panel/bluetooth-paired.svg

<svg xmlns="http://www.w3.org/2000/svg" viewBox="0 0 22 22">
 <path d="m 9 2 0 7 -3.873 -2.766 -1.34 1.043 5.213 3.723 -5.213 3.723 1.34 1.043 3.873 -2.766 l 0 7 l 7.699 -5.5 -4.9 -3.5 4.9 -3.5 z m 2 3.428 2.9 2.072 -2.9 2.072 z m 0 7 2.9 2.072 -2.9 2.072 z" style="fill:#ececec;opacity:1;fill-opacity:1;stroke:none;fill-rule:nonzero"/>
 <path d="m 18,13 c -1.108,0 -2,0.911 -2,2.031 L 16,16 c -0.554,0 -1,0.446 -1,1 l 0,3 c 0,0.554 0.446,1 1,1 l 4,0 c 0.554,0 1,-0.446 1,-1 l 0,-3 c 0,-0.554 -0.446,-1 -1,-1 l 0,-0.969 C 20,13.911 19.108,13 18,13 m 0,1 c 0.554,0 1,0.442 1,1 l 0,1 -2,0 0,-1 c 0,-0.558 0.446,-1 1,-1 z" style="fill:#ececec;fill-opacity:1"/>
</svg>

<svg xmlns="http://www.w3.org/2000/svg" viewBox="0 0 22 22">
 <path style="fill:#ececec;opacity:1;fill-opacity:1;stroke:none;fill-rule:nonzero" d="M 9,2 9,9 5.127,6.234 3.787,7.277 9,11 3.787,14.723 5.127,15.766 9,13 l 0,7 7.699,-5.5 -4.9,-3.5 4.9,-3.5 z M 11,5.428 13.9,7.5 11,9.572 Z m 0,7 2.9,2.072 -2.9,2.072 z"/>
 <path style="fill:#ececec;fill-opacity:1;stroke:none;fill-rule:evenodd" d="m 18 8 -4 3 4 3 z"/>
 <path style="fill:#ececec;fill-opacity:1;stroke:none;fill-rule:evenodd" d="m 3 8 4 3 -4 3 z"/>
</svg>
